svgs/1F620.svg

<svg xmlns="http://www.w3.org/2000/svg" xmlns:xlink="http://www.w3.org/1999/xlink" preserveAspectRatio="none" viewBox="0 0 72 72"><defs><path id="a" fill="#FCC21B" d="M127.55 92.35q0-27-8.5-47.05-15.6-36.65-55.3-36.65Q24.1 8.65 8.5 45.3 0 65.35 0 92.35q0 10.4 18.7 17.7 18.65 7.35 45.05 7.35 26.45 0 45.1-7.35 18.7-7.3 18.7-17.7z"/><path id="c" fill="#2F2F2F" d="M96.1 47.4q-1-.45-2.05 0l-16.5 7.55q-1.1.55-2.2.5-1.45 0-2.15-.8l-.95-1.55q-.2-.4-.65-.6-.5-.25-.9-.05-1.2.5-.95 3.35.3 2.25 1.25 4.1 1 1.9 2.35 3.25 1.9 1.85 4.8 2.85 3 1.05 6.15.85 2.6-.15 5.05-1.15 6.1-2.5 8.05-8 1.6-4.5.1-8.8-.4-1.1-1.4-1.5z"/><path id="d" fill="#2F2F2F" d="M33.7 47.4q-1-.45-2.05 0-1.1.4-1.4 1.5-1.5 4.3.1 8.8 1.9 5.5 8 8 2.45 1 5.05 1.15 3.15.2 6.2-.85 2.9-1 4.8-2.85 1.35-1.35 2.35-3.25.95-1.9 1.2-4.1.15-.7 0-1.7-.2-1.35-.9-1.65-.45-.2-.9.05-.45.2-.65.6l-.95 1.55q-.7.8-2.15.8-.7.05-1.5-.25l-.7-.25-16.5-7.55z"/><path id="b" fill="none" stroke="#2F2F2F" stroke-linecap="round" stroke-linejoin="miter" stroke-miterlimit="10" stroke-width="3" d="M21.7 50.35q5.6-5.85 14.2-5.85 8.55 0 14.15 5.85"/></defs><use transform="scale(.5625)" xlink:href="#a"/><use xlink:href="#b"/><use transform="scale(.5625)" xlink:href="#c"/><use transform="scale(.5625)" xlink:href="#d"/></svg>

<svg xmlns="http://www.w3.org/2000/svg" version="1.1" xmlns:xlink="http://www.w3.org/1999/xlink" preserveAspectRatio="none" x="0px" y="0px" width="72px" height="72px" viewBox="0 0 72 72">
<defs>
<g id="Layer0_0_FILL">
<path fill="#FCC21B" stroke="none" d="
M 127.55 92.35
Q 127.55 65.35 119.05 45.3 103.45 8.65 63.75 8.65 24.1 8.65 8.5 45.3 0 65.35 0 92.35 0 102.75 18.7 110.05 37.35 117.4 63.75 117.4 90.2 117.4 108.85 110.05 127.55 102.75 127.55 92.35 Z"/>
</g>

<g id="Layer0_2_MEMBER_0_FILL">
<path fill="#2F2F2F" stroke="none" d="
M 96.1 47.4
Q 95.1 46.95 94.05 47.4
L 77.55 54.95
Q 76.45 55.5 75.35 55.45 73.9 55.45 73.2 54.65
L 72.25 53.1
Q 72.05 52.7 71.6 52.5 71.1 52.25 70.7 52.45 69.5 52.95 69.75 55.8 70.05 58.05 71 59.9 72 61.8 73.35 63.15 75.25 65 78.15 66 81.15 67.05 84.3 66.85 86.9 66.7 89.35 65.7 95.45 63.2 97.4 57.7 99 53.2 97.5 48.9 97.1 47.8 96.1 47.4 Z"/>
</g>

<g id="Layer0_2_MEMBER_1_FILL">
<path fill="#2F2F2F" stroke="none" d="
M 33.7 47.4
Q 32.7 46.95 31.65 47.4 30.55 47.8 30.25 48.9 28.75 53.2 30.35 57.7 32.25 63.2 38.35 65.7 40.8 66.7 43.4 66.85 46.55 67.05 49.6 66 52.5 65 54.4 63.15 55.75 61.8 56.75 59.9 57.7 58 57.95 55.8 58.1 55.1 57.95 54.1 57.75 52.75 57.05 52.45 56.6 52.25 56.15 52.5 55.7 52.7 55.5 53.1
L 54.55 54.65
Q 53.85 55.45 52.4 55.45 51.7 55.5 50.9 55.2
L 50.2 54.95 33.7 47.4 Z"/>
</g>

<path id="Layer0_1_1_STROKES" stroke="#2F2F2F" stroke-width="3" stroke-linejoin="miter" stroke-linecap="round" stroke-miterlimit="10" fill="none" d="
M 21.7 50.35
Q 27.3 44.5 35.9 44.5 44.45 44.5 50.05 50.35"/>
</defs>

<g id="Layer_1">
<g transform="matrix( 0.5625, 0, 0, 0.5625, 0,0) ">
<use xlink:href="#Layer0_0_FILL"/>
</g>

<g transform="matrix( 1, 0, 0, 1, 0,0) ">
<use xlink:href="#Layer0_1_1_STROKES"/>
</g>

<g transform="matrix( 0.5625, 0, 0, 0.5625, 0,0) ">
<use xlink:href="#Layer0_2_MEMBER_0_FILL"/>
</g>

<g transform="matrix( 0.5625, 0, 0, 0.5625, 0,0) ">
<use xlink:href="#Layer0_2_MEMBER_1_FILL"/>
</g>
</g>
</svg>
